libs/ui/packages/crypto-icons/src/svg/stTON.svg

<svg width="24" height="24" viewBox="0 0 24 24" fill="none" xmlns="http://www.w3.org/2000/svg">
<path fill-rule="evenodd" clip-rule="evenodd" d="M4.39458 8.51401C3.47954 6.93911 4.61577 4.96484 6.4372 4.96484H17.8184C19.635 4.96484 20.7718 6.92977 19.8664 8.50465L12.9984 20.4501C12.6294 21.092 11.704 21.0941 11.3319 20.4538L4.39458 8.51401ZM6.4372 6.71473C5.96498 6.71473 5.6704 7.22658 5.90764 7.63489L12.1605 18.3968L18.3494 7.63247C18.5841 7.22416 18.2894 6.71473 17.8184 6.71473H6.4372Z" fill="white"/>
<path d="M11.3983 11.7237V7.52393L9.53906 8.59577V12.6424L11.3983 13.8455L12.9295 12.8174L11.3983 11.7237Z" fill="white"/>
<path d="M13.2144 8.5957L11.7051 9.47065L13.2144 10.6737V13.1673L14.8768 12.2486V9.62377L13.2144 8.5957Z" fill="white"/>
</svg>

<svg xmlns="http://www.w3.org/2000/svg" width="24" height="24" viewBox="0 0 24 24" fill="none"><path fill="#fff" fill-rule="evenodd" d="M4.395 8.514c-.915-1.575.22-3.55 2.042-3.55h11.381c1.817 0 2.954 1.966 2.048 3.54L12.998 20.45a.962.962 0 0 1-1.666.004zm2.042-1.8a.612.612 0 0 0-.53.92l6.254 10.763 6.188-10.765a.612.612 0 0 0-.53-.917z" clip-rule="evenodd"/><path fill="#fff" d="M11.398 11.724v-4.2L9.54 8.596v4.046l1.86 1.204 1.53-1.029z"/><path fill="#fff" d="m13.214 8.596-1.509.875 1.51 1.203v2.493l1.662-.918V9.624z"/></svg>
